icons/line/compass.svg

<svg width="24" height="24" viewBox="0 0 24 24" fill="none" xmlns="http://www.w3.org/2000/svg">
<path fill-rule="evenodd" clip-rule="evenodd" d="M4 12C4 7.58172 7.58172 4 12 4C16.4183 4 20 7.58172 20 12C20 16.4183 16.4183 20 12 20C7.58172 20 4 16.4183 4 12ZM12 2C6.47715 2 2 6.47715 2 12C2 17.5228 6.47715 22 12 22C17.5228 22 22 17.5228 22 12C22 6.47715 17.5228 2 12 2ZM17.1913 8.0736C17.3111 7.71426 17.2176 7.31809 16.9498 7.05026C16.6819 6.78243 16.2858 6.68891 15.9264 6.80868L9.56247 8.93C9.26386 9.02954 9.02955 9.26386 8.93001 9.56246L6.80869 15.9264C6.68892 16.2858 6.78244 16.6819 7.05027 16.9498C7.3181 17.2176 7.71427 17.3111 8.07361 17.1913L14.4376 15.07C14.7362 14.9705 14.9705 14.7362 15.07 14.4376L17.1913 8.0736ZM9.33852 14.6615L10.6693 10.6693L14.6615 9.33851L13.3308 13.3308L9.33852 14.6615Z" fill="currentColor"/>
</svg>

<svg width="24" height="24" fill="none" xmlns="http://www.w3.org/2000/svg"><path fill-rule="evenodd" clip-rule="evenodd" d="M4 12a8 8 0 1116 0 8 8 0 01-16 0zm8-10C6.477 2 2 6.477 2 12s4.477 10 10 10 10-4.477 10-10S17.523 2 12 2zm5.191 6.074a1 1 0 00-1.265-1.265L9.562 8.93a1 1 0 00-.632.632l-2.121 6.364a1 1 0 001.265 1.265l6.364-2.121a1 1 0 00.632-.632l2.121-6.364zM9.34 14.662l1.33-3.993 3.992-1.33-1.33 3.992-3.992 1.33z" fill="currentColor"/></svg>
